X: 2
T:Loch Tay boat song
R:
M:3/4
L:1/4
K:C
CD|E2D|C2E|G3|E2C|\
c2B|A2F|G3|E2C|
F2G|AGF|G3|E2F|\
E2D|D2E|F2E|DzC|
E2D|C2E|G3|E2C|\
c2B|A2F|G3|E2C|
F2G|AGF|G3|E2F|\
E2C|D2B,|C3|C2C|
c2B|A2F|G3|E2C|\
c2B|A2F|G3 -|G2C|
c2B|A2F|G3|E2F|\
E2D|D2E|F2E|D2C|
E2D|C2E|G3|E2C|\
c2B|A2F|G3|E2C|
F2G|AGF|G3|E2F|\
E2C|D>CB,|C2D|C3|]
